src/assets/outline/MinusCirlce.svg

<svg width="24" height="24" viewBox="0 0 24 24"  xmlns="http://www.w3.org/2000/svg">
<path d="M11.9199 22.75C5.99992 22.75 1.16992 17.93 1.16992 12C1.16992 6.07 5.99992 1.25 11.9199 1.25C17.8399 1.25 22.6699 6.07 22.6699 12C22.6699 17.93 17.8499 22.75 11.9199 22.75ZM11.9199 2.75C6.81992 2.75 2.66992 6.9 2.66992 12C2.66992 17.1 6.81992 21.25 11.9199 21.25C17.0199 21.25 21.1699 17.1 21.1699 12C21.1699 6.9 17.0199 2.75 11.9199 2.75Z" />
<path d="M15.9199 12.75H7.91992C7.50992 12.75 7.16992 12.41 7.16992 12C7.16992 11.59 7.50992 11.25 7.91992 11.25H15.9199C16.3299 11.25 16.6699 11.59 16.6699 12C16.6699 12.41 16.3399 12.75 15.9199 12.75Z" />
</svg>

<?xml version="1.0" encoding="UTF-8"?>
<svg width="24" height="24" viewBox="0 0 24 24" xmlns="http://www.w3.org/2000/svg">
 <path d="m11.92 22.75c-5.92 0-10.75-4.82-10.75-10.75s4.83-10.75 10.75-10.75c5.92 0 10.75 4.82 10.75 10.75s-4.82 10.75-10.75 10.75zm0-20c-5.1 0-9.25 4.15-9.25 9.25s4.15 9.25 9.25 9.25c5.1 0 9.25-4.15 9.25-9.25s-4.15-9.25-9.25-9.25z"/>
 <path d="m15.92 12.75h-8c-0.41 0-0.75-0.34-0.75-0.75s0.34-0.75 0.75-0.75h8c0.41 0 0.75 0.34 0.75 0.75s-0.33 0.75-0.75 0.75z"/>
</svg>
